svgs/duotone/border-center-v.svg

<svg xmlns="http://www.w3.org/2000/svg" viewBox="0 0 448 512"><!--! Font Awesome Pro 6.0.0-alpha3 by @fontawesome - https://fontawesome.com License - https://fontawesome.com/license (Commercial License) --><defs><style>.fa-secondary{opacity:.4}</style></defs><path class="fa-primary" d="M224 32c17.67 0 32 14.33 32 31.1V448C256 465.7 241.7 480 224 480s-32-14.33-32-31.1V63.1C192 46.33 206.3 32 224 32z"/><path class="fa-secondary" d="M448 272v-32C448 231.1 440.9 224 432 224h-32C391.1 224 384 231.1 384 240v32C384 280.9 391.1 288 400 288h32C440.9 288 448 280.9 448 272zM448 176v-32C448 135.1 440.9 128 432 128h-32C391.1 128 384 135.1 384 144v32C384 184.9 391.1 192 400 192h32C440.9 192 448 184.9 448 176zM384 48v32C384 88.88 391.1 96 400 96h32C440.9 96 448 88.88 448 80v-32C448 39.12 440.9 32 432 32h-32C391.1 32 384 39.12 384 48zM448 368v-32c0-8.875-7.125-16-16-16h-32c-8.875 0-16 7.125-16 16v32c0 8.875 7.125 16 16 16h32C440.9 384 448 376.9 448 368zM288 48v32C288 88.88 295.1 96 304 96h32C344.9 96 352 88.88 352 80v-32C352 39.12 344.9 32 336 32h-32C295.1 32 288 39.12 288 48zM96 48v32C96 88.88 103.1 96 112 96h32C152.9 96 160 88.88 160 80v-32C160 39.12 152.9 32 144 32h-32C103.1 32 96 39.12 96 48zM352 272v-32C352 231.1 344.9 224 336 224h-32C295.1 224 288 231.1 288 240v32C288 280.9 295.1 288 304 288h32C344.9 288 352 280.9 352 272zM160 272v-32C160 231.1 152.9 224 144 224h-32C103.1 224 96 231.1 96 240v32C96 280.9 103.1 288 112 288h32C152.9 288 160 280.9 160 272zM64 272v-32C64 231.1 56.88 224 48 224h-32C7.125 224 0 231.1 0 240v32C0 280.9 7.125 288 16 288h32C56.88 288 64 280.9 64 272zM64 176v-32C64 135.1 56.88 128 48 128h-32C7.125 128 0 135.1 0 144v32C0 184.9 7.125 192 16 192h32C56.88 192 64 184.9 64 176zM0 48v32C0 88.88 7.125 96 16 96h32C56.88 96 64 88.88 64 80v-32C64 39.12 56.88 32 48 32h-32C7.125 32 0 39.12 0 48zM448 464v-32c0-8.875-7.125-16-16-16h-32c-8.875 0-16 7.125-16 16v32c0 8.875 7.125 16 16 16h32C440.9 480 448 472.9 448 464zM352 464v-32c0-8.875-7.125-16-16-16h-32c-8.875 0-16 7.125-16 16v32c0 8.875 7.125 16 16 16h32C344.9 480 352 472.9 352 464zM160 464v-32C160 423.1 152.9 416 144 416h-32C103.1 416 96 423.1 96 432v32C96 472.9 103.1 480 112 480h32C152.9 480 160 472.9 160 464zM64 464v-32C64 423.1 56.88 416 48 416h-32C7.125 416 0 423.1 0 432v32C0 472.9 7.125 480 16 480h32C56.88 480 64 472.9 64 464zM64 368v-32C64 327.1 56.88 320 48 320h-32C7.125 320 0 327.1 0 336v32C0 376.9 7.125 384 16 384h32C56.88 384 64 376.9 64 368z"/></svg>

<svg xmlns="http://www.w3.org/2000/svg" viewBox="0 0 448 512"><!-- Font Awesome Pro 5.15.3 by @fontawesome - https://fontawesome.com License - https://fontawesome.com/license (Commercial License) --><defs><style>.fa-secondary{opacity:.4}</style></defs><path d="M0 240v32a16 16 0 0 0 16 16h32a16 16 0 0 0 16-16v-32a16 16 0 0 0-16-16H16a16 16 0 0 0-16 16zm0 96v32a16 16 0 0 0 16 16h32a16 16 0 0 0 16-16v-32a16 16 0 0 0-16-16H16a16 16 0 0 0-16 16zm64 128v-32a16 16 0 0 0-16-16H16a16 16 0 0 0-16 16v32a16 16 0 0 0 16 16h32a16 16 0 0 0 16-16zM0 144v32a16 16 0 0 0 16 16h32a16 16 0 0 0 16-16v-32a16 16 0 0 0-16-16H16a16 16 0 0 0-16 16zm160 320v-32a16 16 0 0 0-16-16h-32a16 16 0 0 0-16 16v32a16 16 0 0 0 16 16h32a16 16 0 0 0 16-16zm192 0v-32a16 16 0 0 0-16-16h-32a16 16 0 0 0-16 16v32a16 16 0 0 0 16 16h32a16 16 0 0 0 16-16zM96 240v32a16 16 0 0 0 16 16h32a16 16 0 0 0 16-16v-32a16 16 0 0 0-16-16h-32a16 16 0 0 0-16 16zm192 0v32a16 16 0 0 0 16 16h32a16 16 0 0 0 16-16v-32a16 16 0 0 0-16-16h-32a16 16 0 0 0-16 16zm96 0v32a16 16 0 0 0 16 16h32a16 16 0 0 0 16-16v-32a16 16 0 0 0-16-16h-32a16 16 0 0 0-16 16zm0 96v32a16 16 0 0 0 16 16h32a16 16 0 0 0 16-16v-32a16 16 0 0 0-16-16h-32a16 16 0 0 0-16 16zm64 128v-32a16 16 0 0 0-16-16h-32a16 16 0 0 0-16 16v32a16 16 0 0 0 16 16h32a16 16 0 0 0 16-16zM0 48v32a16 16 0 0 0 16 16h32a16 16 0 0 0 16-16V48a16 16 0 0 0-16-16H16A16 16 0 0 0 0 48zm96 0v32a16 16 0 0 0 16 16h32a16 16 0 0 0 16-16V48a16 16 0 0 0-16-16h-32a16 16 0 0 0-16 16zm192 0v32a16 16 0 0 0 16 16h32a16 16 0 0 0 16-16V48a16 16 0 0 0-16-16h-32a16 16 0 0 0-16 16zm96 0v32a16 16 0 0 0 16 16h32a16 16 0 0 0 16-16V48a16 16 0 0 0-16-16h-32a16 16 0 0 0-16 16zm0 96v32a16 16 0 0 0 16 16h32a16 16 0 0 0 16-16v-32a16 16 0 0 0-16-16h-32a16 16 0 0 0-16 16z" class="fa-secondary"/><path d="M256 48v416a16 16 0 0 1-16 16h-32a16 16 0 0 1-16-16V48a16 16 0 0 1 16-16h32a16 16 0 0 1 16 16z" class="fa-primary"/></svg>
